src/main/resources/icons/AllIcons/toolbarDecorator/addPattern.svg

<!-- Copyright 2000-2021 JetBrains s.r.o. Use of this source code is governed by the Apache 2.0 license that can be found in the LICENSE file. -->
<svg xmlns="http://www.w3.org/2000/svg" width="16" height="16" viewBox="0 0 16 16">
  <g fill="none" fill-rule="evenodd">
    <rect width="2" height="10" x="5" y="3" fill="#6E6E6E"/>
    <rect width="2" height="10" x="5" y="3" fill="#6E6E6E" transform="rotate(90 6 8)"/>
    <path fill="#6E6E6E" fill-rule="nonzero" d="M12.875,16 L14.125,16 L14.125,14.75 L12.875,14.75 L12.875,16 Z M13.5,8.5 C12.11875,8.5 11,9.61875 11,11 L12.25,11 C12.25,10.3125 12.8125,9.75 13.5,9.75 C14.1875,9.75 14.75,10.3125 14.75,11 C14.75,12.25 12.875,12.09375 12.875,14.125 L14.125,14.125 C14.125,12.71875 16,12.5625 16,11 C16,9.61875 14.88125,8.5 13.5,8.5 Z"/>
  </g>
</svg>

<svg xmlns="http://www.w3.org/2000/svg" width="16" height="16" viewBox="0 0 16 16"><rect id="frame" width="16" height="16" fill="none"/><g fill="#6E6E6E" fill-rule="evenodd"><path d="M5 3h2v10H5z"/><path d="M11 7v2H1V7z"/><path fill-rule="nonzero" d="M12.875 16h1.25v-1.25h-1.25V16zm.625-7.5A2.5 2.5 0 0 0 11 11h1.25c0-.688.563-1.25 1.25-1.25.688 0 1.25.563 1.25 1.25 0 1.25-1.875 1.094-1.875 3.125h1.25C14.125 12.719 16 12.562 16 11a2.5 2.5 0 0 0-2.5-2.5z"/></g></svg>
